X:1
T:O'Donnell's March
T:MacDonnell's March
R:march
H:Cf. Allistrum's March, #19, #26
B:Bunting 1840
Z:id:hn-march-1
M:6/8
Q:3/8=120
K:D
FEE FDD|FEd dBA|FEE FDD|FEd B2A:|
|:B2A B2F|B2A B2E|B2A BFF|B2A B2E:|
|:Bdd cee|Bdd dBA|Bdd cee|Bdd B2A:|
|:B2A B2F|B2A B2E|B2A B2F|B2A B2E:|

